assets/Flexed biceps/Medium/Flat/flexed_biceps_flat_medium.svg

<svg width="32" height="32" viewBox="0 0 32 32" fill="none" xmlns="http://www.w3.org/2000/svg">
<path d="M20.5131 29.9687L9.09375 29.9687C4.34376 29.9687 2.01315 26.1101 2.06251 23C2.06251 19.5937 6.90626 7.12497 6.90626 7.12497C7.71876 5.09372 8.42131 3.42992 10.8125 3.46868C12.6563 3.46868 16.2031 4.9687 16.2031 7.96869C16.2031 9.5937 15.0625 10.0781 15.0625 10.0781C15.0625 11.0468 14.2656 11.9687 13.4219 11.9687H9.68751C9.68751 11.9687 12.8252 18.2666 13.0938 18.7656C13.3623 19.2645 13.625 18.7656 13.625 18.7656C14.6875 15.5312 18.25 12.994 21.4063 12.994C25.8947 12.9929 29.9994 17.015 30 20.7682C30 20.7678 30 20.7674 30 20.767V20.769C30 20.7687 30 20.7685 30 20.7682C29.9995 25.5319 26.8432 29.9687 20.5131 29.9687Z" fill="#C68D7B"/>
<path d="M30 20.769V20.767C30 20.7674 30 20.7678 30 20.7682C30 20.7685 30 20.7687 30 20.769Z" fill="#C68D7B"/>
<path d="M10.25 6.43747L11.5469 8.08591H13.6406C13.1719 7.44531 11.525 6.21247 10.25 6.43747Z" fill="#A9715F"/>
<path d="M15.0764 10.0718C15.0674 10.0761 15.0625 10.0781 15.0625 10.0781C15.0625 11.0469 14.2656 11.9688 13.4219 11.9688H9.83165C9.83165 11.9688 10.2492 12.9355 10.771 14.1415C7.96197 13.9081 7 10.9922 7 10.9922H7.81449C7.82508 10.9972 7.83577 11.0024 7.84655 11.0078H13.1562C13.6875 11.0078 14.8438 10.5312 14.0156 9C14.3051 9 14.9137 9.43857 15.0764 10.0718Z" fill="#A9715F"/>
<path d="M14.6514 18.7018C14.4646 18.394 14.1945 18.1846 13.8945 18.0737C13.7922 18.3002 13.7021 18.5311 13.625 18.7656C13.625 18.7656 13.5309 18.9443 13.3978 18.9809C13.5531 18.9896 13.7049 19.0696 13.7966 19.2206L16.7601 24.1032C16.9034 24.3392 17.2109 24.4144 17.4469 24.2711C17.683 24.1279 17.7582 23.8203 17.6149 23.5843L14.6514 18.7018Z" fill="#A9715F"/>
<path d="M12.0916 18.6939C12.2604 18.4197 12.4952 18.2246 12.758 18.1084C12.9292 18.4473 13.0498 18.684 13.0938 18.7656C13.1693 18.906 13.2445 18.9674 13.3134 18.9831C13.1687 18.9991 13.0299 19.0773 12.9433 19.218L10.0508 23.9183C9.90611 24.1534 9.59813 24.2268 9.36295 24.0821C9.12777 23.9373 9.05445 23.6294 9.19917 23.3942L12.0916 18.6939Z" fill="#A9715F"/>
</svg>

<svg xmlns="http://www.w3.org/2000/svg" width="32" height="32" fill="none"><path fill="#C68D7B" d="M20.513 29.969H9.093c-4.75 0-7.08-3.859-7.03-6.969 0-3.406 4.843-15.875 4.843-15.875.813-2.031 1.515-3.695 3.907-3.656 1.843 0 5.39 1.5 5.39 4.5 0 1.625-1.14 2.11-1.14 2.11 0 .968-.797 1.89-1.641 1.89H9.688s3.137 6.298 3.406 6.797c.268.499.531 0 .531 0 1.063-3.235 4.625-5.772 7.781-5.772C25.895 12.993 30 17.015 30 20.768v-.001.002c0 4.763-3.157 9.2-9.487 9.2ZM30 20.769v-.002.002Z"/><path fill="#A9715F" d="m10.25 6.437 1.297 1.649h2.094c-.47-.64-2.116-1.874-3.391-1.649ZM15.076 10.072a.293.293 0 0 1-.014.006c0 .969-.796 1.89-1.64 1.89h-3.59l.939 2.174C7.962 13.908 7 10.992 7 10.992h.814l.033.016h5.31c.53 0 1.687-.477.859-2.008.29 0 .898.439 1.06 1.072ZM14.651 18.702a1.482 1.482 0 0 0-.756-.628 6.97 6.97 0 0 0-.27.692s-.094.178-.227.215a.495.495 0 0 1 .399.24l2.963 4.882a.5.5 0 0 0 .855-.519l-2.964-4.882ZM12.092 18.694c.168-.274.403-.47.666-.586.171.34.292.576.336.658.075.14.15.201.22.217a.495.495 0 0 0-.37.235l-2.893 4.7a.5.5 0 0 1-.852-.524l2.893-4.7Z"/></svg>
